X:1
T:I Have Entered Beulah Land
T:I Have Entered Beulah Land
T:John Robson Sweney
T:Frances Jane (Fanny) Crosby, 1886
T:Public Domain Courtesy of the Cyber Hymnal™
C:John Robson Sweney
Z:Public Domain
Z:Courtesy of the Cyber Hymnal™
%%score 1 ( 2 3 )
L:1/8
Q:1/4=110
M:4/4
K:Ab
V:1 treble 
V:2 bass 
V:3 bass 
V:1
 [CA][DB] | [Ec]2 [CA]2 [DA]2 [DF]2 | [CE] [CA]3- [CA]2 [CA][Ec] | [EB]2 [EB]2 [Ed]2 [Ed]2 | %4
w: 1.~Oh, my|cup is o- ver-|flow- ing * With the|good- ness of the|
w: 2.~From the|sigh- ing and the|long- ing, * That so|oft my heart op-|
w: 3.~There’s a|pal- ace o’er the|riv- er * And its|jas- per walls I|
w: 4.~I have|climbed the rug- ged|mount- ain, * But my|Sav- ior led the|
 [EB]6 [Ec][Ed] | [Ee]3 [Ec] [DB]2 [Ec]2 | [DA]4 [DF]2 [DF][DF] | [CE]2 [CE]2 [Ec]3 [DB] | [CA]6 || %9
w: Lord; I am|trust- ing in His|mer- cy, And re-|joic- ing in His|Word.|
w: pressed, With my|Sav- ior and Re-|deem- er Now in|per- fect peace I|rest.|
w: see, And a-|mong its ma- ny|man- sions There is|one pre- pared for|me.|
w: way; Un- to|Him shall be the|glo- ry, When I|reach e- ter- nal|day.|
"^Refrain" [CA][CA] | [EB]3 [EB] [EA]2 [EB]2 | [Ec]2 [Ec]4 [Ec][Ec] | %12
w: |||
w: |||
w: |||
w: |||
 [Ed]3 [Ed] [Ec]2 ([EB][=DA]) | [EB]6 | [Ec][Ed] | [Ee]4- [Ee][Ac][GB][_Gc] | %16
w: ||||
w: ||||
w: ||||
w: ||||
 [Fe]2 [Fd]4 [Fc][FB] | [EA]2 [CE]2 [Ec]3 [DB] | [CA]6 |] %19
w: |||
w: |||
w: |||
w: |||
V:2
 [A,,E,][A,,E,] | [A,,A,]2 [A,,E,]2 [A,,F,]2 [A,,A,]2 | [A,,A,] [A,,E,]3- [A,,E,]2 [A,,E,][A,,A,] | %3
w: ~ ~|~ ~ ~~ ~|~ ~ * ~ ~|
 [E,G,]2 [E,G,]2 [G,B,]2 A,2 | [E,G,]6 A,[A,B,] | [A,C]3 [A,,A,] [A,,E,]2 [A,,A,]2 | %6
w: ~ ~ ~ ~|~ ~ ~|~ ~ ~~ ~|
 [D,F,]4 [D,A,]2 [D,A,][D,A,] | [E,A,]2 [E,A,]2 [E,A,]3 [E,G,] | [A,,A,]6 || [A,,A,][A,,A,] | %10
w: ~ ~ ~ ~|~ ~ ~ ~|~|I have|
 [E,G,]3 [D,G,] [C,A,]2 [B,,G,]2 | [A,,A,]2 [A,,A,]4 A,A, | [G,B,]3 [G,B,] A,2 ([G,B,]F,) | %13
w: climbed the rug- ged|mount- ain, On its|sum- mit now I *|
 [E,G,]6 | A,[A,B,] | ([A,C][A,C][A,C][A,C] [A,C])[A,E][E,E]A, | [D,A,]2 [D,A,]4 [D,A,][D,D] | %17
w: stand;|Hal- le-|lu- * * * * jah! hal- le-|lu- jah! I have|
 [E,C]2 [E,A,]2 [E,A,]3 [E,G,] | [A,,A,]6 |] %19
w: en- tered Beu- lah|land.|
V:3
 x2 | x8 | x8 | x6 A,2 | x6 A, x | x8 | x8 | x8 | x6 || x2 | x8 | x8 | x8 | x6 | x2 | x8 | x8 | %17
 x8 | x6 |] %19

